X: 1
T: Sonata in C major, L.1, K.514
C: Domenico Scarlatti
%%abc-version 2.0
%%abcx-abcm2ps-target-version 5.9.1 (29 Sep 2008)
%%abc-creator hum2abc beta
%%abcx-conversion-date 2021/06/28 10:15:40
%%abc-copyright 2021 Craig Stuart Sapp
%%abc-edited-by Craig Stuart Sapp
%%abc-edited-by Kelly Leistikow and Craig Stuart Sapp
%%abcx-initial-encoding-date 2005/06/30
%%humdrum-veritas 1823932321
%%humdrum-veritas-data 3667775252
%%linebreak <none>
%%barnumbers 0
L: 1/4
M: C|
N: Derived from L001K514.krn
Q: "Allegro ([half]=96)" 1/2=96
%%staves {1 2}
V: 1 clef=treble
V: 2 clef=bass
K: C
[V:1] z/ .c/.e/.g/c'2 | 
[V:2] C,2z/ G/E/C/ | 
[V:1] z/ .c/.e/.g/c'2 | 
[V:2] C,,2z/ G/E/C/ | 
[V:1] z/ .c/.e/.g/c'2 | 
[V:2] C,,2z/ G/E/C/ | 
[V:1] a2!trill!d2{/cd} | 
[V:2] .F,,F,G,G,, | 
[V:1] .c/ .c/.e/.g/!accent!c'2 | 
[V:2] C,,2z/ G/E/C/ | 
[V:1] a2!trill!d2{/cd} | 
[V:2] .F,,F,G,G,, | 
[V:1] .c.c'!trill!E2{/DE} | 
[V:2] C,,2!trill!C2{/B,C} | 
[V:1] .D.d'!trill!D2{/CD} | 
[V:2] .B,.B,,!trill!B,2{/A,B,} | 
[V:1] .C.c'!trill!C2{/B,C} | 
[V:2] .A,.A,,!trill!A,2{/G,A,} | 
[V:1] .B,.b!trill!B,2{/A,B,} | 
[V:2] .G,.G,,!trill!G,2{/^F,G,}[K:clef=treble] | 
[V:1] d'2-(3d'/c'/b/ (3a/b/c'/ | 
[V:2] .g[K:clef=bass].G,,D,,2[K:clef=treble] | 
[V:1] (3b/c'/d'/d'-(3d'/c'/b/ (3a/b/c'/ | 
[V:2] .g[K:clef=bass].G,,D,,2[K:clef=treble] | 
[V:1] (3b/c'/d'/d'-(3d'/d'/b/ (3a/b/c'/ | 
[V:2] .g[K:clef=bass].G,,D,,2 | 
[V:1] (3b/c'/d'/ (3d'/e'/^f'/ (3g'/f'/e'/ (3d'/c'/b/ | 
[V:2] G,,2G,,,2 | 
[V:1] (3e'/d'/c'/ (3b/a/g/ (3c'/b/a/ (3g/^f/e/ | 
[V:2] C,,2C,2 | 
[V:1] d-d//e//^f//g//!trill!a3/g//a// | 
[V:2] D,2D,,2 | 
[V:1] g2z2 | 
[V:2] G,,2.[G,=F].[G,F] | 
[V:1] z2!trill!a3/g//a// | 
[V:2] .[G,E].[G,E].[G,^F].[G,F] | 
[V:1] g2z2 | 
[V:2] [G,2G2].[G,=F].[G,F] | 
[V:1] z2!trill!a3/g//a// | 
[V:2] .[G,E].[G,E].[G,^F].[G,F] | 
[V:1] (3g/g'/d'/ (3b/g/d/ .G/ z/ .G,/ z/ | 
[V:2] [G,2G2](3z/ D/B,/ (3z/ D,/G,,/ | 
[V:1] e'2!trill!a2{/ga} | 
[V:2] .C,,C,D,D,, | 
[V:1] g2.[G=f].[Gf] | 
[V:2] G,,,2G,,,2 | 
[V:1] x2^f2 & .[Ge].[Ge]!trill!c3/B//c// | 
[V:2] G,,,2G,,,2 | 
[V:1] g2x2 & B2.[G=f].[Gf] | 
[V:2] G,,,2G,,,2 | 
[V:1] x2^f2 & .[Ge].[Ge]!trill!c3/B//c// | 
[V:2] G,,,2G,,,2 | 
[V:1] (3[B/g/]g/d/ (3B/G/D/z2 | 
[V:2] G,,,2(3G,/D,/B,,/ (3G,,/D,,/G,,,/ | 
[V:1] e'2!trill!a2{/ga} | 
[V:2] .C,,C,D,D,, | 
[V:1] (3g/g'/d'/ (3b/g/d/ .G/ z/ .G,/ z/ | 
[V:2] G,,,2(3z/ D/B,/ (3z/ D,/G,,/ | 
[V:1] e2!trill!A2{/GA} | 
[V:2] .C,,C,D,D,, | 
[V:1] G4 :|]|:  
[V:2] G,,,4 :|]|:  
[V:1] z4 | 
[V:2] .[G,G].[G,G].[G,=F].[G,F] | 
[V:1] z4 | 
[V:2] .[G,E].[G,E].[G,D].[G,D] | 
[V:1] aA2z | 
[V:2] [G,2A,2^C2]z2 | 
[V:1] z4 | 
[V:2] .[A,A].[A,A].[A,G].[A,G] | 
[V:1] z4 | 
[V:2] .[A,F].[A,F].[A,E].[A,E] | 
[V:1] bB2z | 
[V:2] [A,2B,2^D2]z2[K:clef=treble] | 
[V:1] z4 | 
[V:2] .[Cc].[Cc].[CB].[CB] | 
[V:1] z4 | 
[V:2] .[CA].[CA].[CG].[CG] | 
[V:1] d'd2z | 
[V:2] .[CDF].[CDF].[CDF].[CDF] | 
[V:1] d'd2z | 
[V:2] .[B,DF].[B,DF].[B,DF].[B,DF] | 
[V:1] d'd2z | 
[V:2] .[A,DF].[A,DF].[A,DF].[A,DF] | 
[V:1] d'd2z | 
[V:2] .[G,DF].[G,DF].[G,DF].[G,DF] | 
[V:1] cc'cc' | 
[V:2] .[G,E].[G,E].[G,^F].[G,F] | 
[V:1] (3b/a/g/.gcc' | 
[V:2] .[G,G].[G,G].[G,^F].[G,F] | 
[V:1] (3b/a/g/.gcc' | 
[V:2] .[G,G].[G,G].[G,^F].[G,F] | 
[V:1] (3b/a/g/.gz2 | 
[V:2] [G,2G2]z2 | 
[V:1] [c'2e'2-](3e'/d'/e'/ (3f'/e'/d'/ | 
[V:2] .c[K:clef=bass].C,,G,,,2[K:clef=treble] | 
[V:1] [c'2e'2-](3e'/d'/e'/ (3f'/e'/d'/ | 
[V:2] .c[K:clef=bass].C,,G,,,2[K:clef=treble] | 
[V:1] [c'2e'2-](3e'/d'/e'/ (3f'/e'/d'/ | 
[V:2] .c[K:clef=bass].C,,G,,,2 | 
[V:1] (3e'/g'/f'/ (3e'/d'/c'/ (3_b/d'/c'/ (3b/a/g/ | 
[V:2] C,,2C,2 | 
[V:1] (3a/c'/=b/ (3a/g/f/ (3f/a/g/ (3f/e/d/ | 
[V:2] F,,2F,2 | 
[V:1] c-c//d//!beambr1!c/8B/8c/8d/8!mordent!d3/c/ | 
[V:2] G,2G,,2 | 
[V:1] c2z2 | 
[V:2] C,,2[K:clef=treble].[C_B].[CB] | 
[V:1] z2!trill!d'3/c'//d'// | 
[V:2] .[CA].[CA].[C=B].[CB] | 
[V:1] c'2z2 | 
[V:2] [C2c2].[C_B].[CB] | 
[V:1] z2!trill!d'3/c'//d'// | 
[V:2] .[CA].[CA].[C=B].[CB] | 
[V:1] (3c'/ c'/g/ (3e/c/G/z2 | 
[V:2] [C2c2][K:clef=bass](3C/G,/E,/ (3C,/G,,/C,,/ | 
[V:1] a2!trill!d2{/cd} | 
[V:2] .F,,F,G,G,, | 
[V:1] c2.[c_b].[cb] | 
[V:2] C,,2C,,2 | 
[V:1] x2=b2 & .[ca].[ca]!trill!f3/e//f// | 
[V:2] C,,2C,,2 | 
[V:1] [e2c'2].[c_b].[cb] | 
[V:2] C,,2C,,2 | 
[V:1] x2=b2 & .[ca].[ca]f3/e//f// | 
[V:2] C,,2C,,2 | 
[V:1] (3[e/c'/] c'/g/ (3e/c/G/z2 | 
[V:2] C,,2(3C/G,/E,/ (3C,/G,,/C,,/ | 
[V:1] a2!trill!d2{/cd} | 
[V:2] .F,,F,G,G,, | 
[V:1] (3c/c'/g/ (3e/c/G/z2 | 
[V:2] C,,2(3C/G,/E,/ (3C,/G,,/C,,/ | 
[V:1] A2!trill!D2{/CD} | 
[V:2] .F,,F,G,G,, | 
[V:1] C4 :|]  
[V:2] C,,4 :|]  


